X:1
T:Title
%%score { ( 1 3 ) | ( 2 4 ) }
L:1/8
M:4/4
K:Bb
V:1 treble nm="Grand Piano"
V:3 treble 
V:2 bass 
V:4 bass 
V:1
 z4 z2[Q:1/4=100] [B,D]>[CE] | [DF]2 [Fd]2 [Ge]2 [Fd]2 | [Gc]2 G4 B>G | A6 z2 |[M:3/4] F6 | %5
[M:1/4] D>[CE] |[M:4/4] [DF]2 [Fd]2 [Ge]2 [Fd]2 | [Gc]2 G4 A>G | F2 d2 d2 c2 |[M:3/4] [DB]6 | %10
[M:1/4] B>A |[M:4/4] z2 E>E EB c>B | B2 D>D D2 G>F | z2 C>C Cc d>c | z2 D>D D2 B>A | %15
 z2 E>E EB c>B | B2 D>D D2 A>G | F2 d2 d c3 |[M:3/4] B2- [EB-]2 [DB]2 |] %19
V:2
 z4 z2 [B,,F,]>[B,,F,] | [B,,B,]2 [B,,B,]2 [B,,B,]2 [B,,B,]2 | [E,B,]2 [E,B,E]4 z2 | %3
 z2 [F,C]>[F,C] [F,C]2 z2 |[M:3/4] z2 [B,,B,]>[B,,B,] [B,,B,]2 |[M:1/4] [B,,F,B,]>[B,,F,] | %6
[M:4/4] [B,,B,]2 [B,,B,]2 [B,,B,]2 [B,,B,]2 | [E,B,]2 [E,B,E]4 [=E,A,_D]>[E,B,D] | %8
 [F,B,D]2 [F,B,F]2 [F,A,F]2 [F,A,E]2 |[M:3/4] [B,,B,]6 |[M:1/4] z2 | %11
[M:4/4] z2 [E,B,]>[E,B,] .[E,B,]2 z2 | z2 [B,,B,]>[B,,B,] [B,,B,]2 z2 | %13
 z2 [F,A,]>[F,A,] .[F,A,]2 z2 | z2 [B,,B,]>[B,,B,] [B,,B,]2 z2 | z2 [E,B,]>[E,B,] .[E,B,]2 z2 | %16
 z2 [B,,B,]>[B,,B,] [B,,B,]2 [=E,A,_D]>[E,A,D] | [F,B,D]2 [F,B,F]2 [F,A,F] [F,A,E]3 | %18
[M:3/4] z2 G,2 F,2 |] %19
V:3
 x8 | x8 | x8 | z2 E>E E2 G>D |[M:3/4] z2 D>D D2 |[M:1/4] x2 |[M:4/4] x8 | x8 | x8 |[M:3/4] x6 | %10
[M:1/4] x2 |[M:4/4] G6 z2 | z2 F4 z2 | E6 z2 | F6 z2 | G6 z2 | z2 F4 z2 | x8 | %18
[M:3/4] [B,D]2 z2 z2 |] %19
V:4
 x8 | x8 | x8 | x8 |[M:3/4] x6 |[M:1/4] x2 |[M:4/4] x8 | x8 | x8 |[M:3/4] x6 |[M:1/4] x2 | %11
[M:4/4] x8 | x8 | x8 | x8 | x8 | x8 | x8 |[M:3/4] B,,6 |] %19

